X:258
T:Steirer (56.)
C:traditionell
A:Salzkammergut
S:MIDI erhalten von Christian Amon. Nach einer kopie im besitz von Johann Stoeckl eines manuscriptes. Stoeckl(zitiert von Amon): "diese sammlung wurde 1935 im hause der familie Hohenlohe-Schillingfuerst gefunden. Sie wurde von einem der beiden brueder Steinegger 1866 verfasst. Die originale sind im Ausseer Kammerhofmuseum".
M:3/4
L:1/8
K:G
V:1
G2 DG c2 | BG DB G2 | AF DA FD | GD DB GD |\
G2 DG c2 | BG DB G2 | AF DA FD | G4 z2 |*
V:2
D2 GB e2 | dB Gd B2 | cA Fc AF | BG Gd BG |\
D2 GB e2 | dB Gd B2 | cA Fc AF | B4 z2 |*
